korla/apps/scalable/cisco-anyconnect.svg

<svg width="48" height="48" xmlns="http://www.w3.org/2000/svg">
 <path d="m24 4c-11.08 0-20 8.92-20 20s8.92 20 20 20 20-8.92 20-20-8.92-20-20-20z" fill="#e4e4e4"/>
 <path d="m18 10a20 20 0 0 0 -10.8476562 3.220703c-1.9879618 3.108969-3.1523438 6.799949-3.1523438 10.779297 0 1.117568.0949736 2.212615.2695312 3.279297a14 14 0 0 1 13.7304688-11.279297 14 14 0 0 1 14 14 14 14 0 0 1 -11.304688 13.726562c1.074694.177287 2.178241.273438 3.304688.273438 3.99571 0 7.7015-1.172737 10.818359-3.175781a20 20 0 0 0 3.181641-10.824219 20 20 0 0 0 -20-20z" fill="#318bcf"/>
 <path d="m24 5c-.0951 0-.188431.0065025-.283203.0078125a20 20 0 0 0 -5.716797 13.9921875 20 20 0 0 0 19.253906 19.972656c2.072844-1.834851 3.75726-4.088915 4.923828-6.640625a14 14 0 0 1 -4.177734.667969 14 14 0 0 1 -14-14 14 14 0 0 1 7.664062-12.4824219c-2.359132-.9745976-4.944805-1.5175781-7.664062-1.5175781z" opacity=".2"/>
 <path d="m24 4c-.095095 0-.188431.0065027-.283203.0078125a20 20 0 0 0 -5.716797 13.9921875 20 20 0 0 0 20 20 20 20 0 0 0 .308594-.015625c1.88173-1.925408 3.36449-4.233731 4.347656-6.796875a14 14 0 0 1 -4.65625.8125 14 14 0 0 1 -14-14 14 14 0 0 1 7.664062-12.4824219c-2.359132-.9745976-4.944805-1.5175781-7.664062-1.5175781z" fill="#7bc450"/>
 <path d="m24 4c11.07 0 19.982 8.92 19.982 20 0 .16787-.008.33314-.01169.5-.264-10.846-9.068-19.5-19.97-19.5s-19.706 8.654-19.97 19.5c-.004-.16686-.011689-.33213-.011689-.5 0-11.08 8.9119-20 19.982-20z" fill="#fff" opacity=".2"/>
 <path d="m4.0118 24.5c-.0041.167-.0117.332-.0117.5 0 11.08 8.92 20 20 20s20-8.92 20-20c0-.168-.008-.333-.012-.5-.264 10.846-9.076 19.5-19.988 19.5s-19.724-8.654-19.988-19.5z" opacity=".2"/>
</svg>

<svg xmlns="http://www.w3.org/2000/svg" width="48" height="48" version="1">
 <path fill="#e4e4e4" d="m24 4c-11.08 0-20 8.92-20 20s8.92 20 20 20 20-8.92 20-20-8.92-20-20-20z"/>
 <path style="fill:#318bcf" d="M 18 10 A 20 20 0 0 0 7.1523438 13.220703 C 5.164382 16.329672 4 20.020652 4 24 C 4 25.117568 4.0949736 26.212615 4.2695312 27.279297 A 14 14 0 0 1 18 16 A 14 14 0 0 1 32 30 A 14 14 0 0 1 20.695312 43.726562 C 21.770006 43.903849 22.873553 44 24 44 C 27.99571 44 31.7015 42.827263 34.818359 40.824219 A 20 20 0 0 0 38 30 A 20 20 0 0 0 18 10 z"/>
 <path style="opacity:0.2" d="M 24 5 C 23.9049 5 23.811569 5.0065025 23.716797 5.0078125 A 20 20 0 0 0 18 19 A 20 20 0 0 0 37.253906 38.972656 C 39.32675 37.137805 41.011166 34.883741 42.177734 32.332031 A 14 14 0 0 1 38 33 A 14 14 0 0 1 24 19 A 14 14 0 0 1 31.664062 6.5175781 C 29.30493 5.5429805 26.719257 5 24 5 z"/>
 <path style="fill:#7bc450" d="M 24 4 C 23.904905 4 23.811569 4.0065027 23.716797 4.0078125 A 20 20 0 0 0 18 18 A 20 20 0 0 0 38 38 A 20 20 0 0 0 38.308594 37.984375 C 40.190324 36.058967 41.673084 33.750644 42.65625 31.1875 A 14 14 0 0 1 38 32 A 14 14 0 0 1 24 18 A 14 14 0 0 1 31.664062 5.5175781 C 29.30493 4.5429805 26.719257 4 24 4 z"/>
 <path fill="#fff" opacity=".2" d="m24 4c11.07 0 19.982 8.92 19.982 20 0 0.16787-0.008 0.33314-0.01169 0.5-0.264-10.846-9.068-19.5-19.97-19.5s-19.706 8.654-19.97 19.5c-0.004-0.16686-0.011689-0.33213-0.011689-0.5 0-11.08 8.9119-20 19.982-20z"/>
 <path opacity=".2" d="m4.0118 24.5c-0.0041 0.167-0.0117 0.332-0.0117 0.5 0 11.08 8.92 20 20 20s20-8.92 20-20c0-0.168-0.008-0.333-0.012-0.5-0.264 10.846-9.076 19.5-19.988 19.5s-19.724-8.654-19.988-19.5z"/>
</svg>
